X:1
T: Lady Hall
C:J. McKenzie
R:Strathspey
Q: 128
K:G
M:4/4
L:1/16
|:D2|G3A G3E D3E G3A|Be3 d3B d3A B3A|G3A B3d e3f g3G|A3B c3A BG3 E4|
G3A G3E D3E G3A|Be3 d3B dA3 Bd3|e3d B3G A3B d3B|G3A B3A G2E2 G4|
g3d B3d G3A B3d|g3f e3f g3a b3a|g3d e2g2 G3A B2d2|c3A d3B A3G E2d2|
g3d B3d G3A B3d|g3f e3f g3a b3a|g3d e3B G3A B3d|c3A d3B A2G2 E2:|
